X: 17615
T: Hogties
R: reel
M: 4/4
K: Dmixolydian
AGAc D2dc|AGAB cGBc|AGAc D2dc|AGAc EDDD|
AGAc D2dc|AGAB cGBc|d2cA GAcG|AcGc EDDc:|
dA A/A/A d2cA|AGAB c2Bc|dA A/A/A d2cA|AGAc EDD2|
dA A/A/A d2cA|AGAB c2Bc|d2cA GAcG|AcGc EDD2:|
dD D/D/D d2cB|AGAB c2Bc|AD D/D/D A2cB|AGAc EDDD|
dD D/D/D d2cB|AGAB c2Bc|d2cB GAcG|AcGE D4:|

